assets/icons/qvision/clean_hands.svg

<svg xmlns="http://www.w3.org/2000/svg" enable-background="new 0 0 24 24" height="24" viewBox="0 0 24 24" width="24"><rect fill="none" height="24" width="24"/><path d="M16.99,5l0.63,1.37L18.99,7l-1.37,0.63L16.99,9l-0.63-1.37L14.99,7l1.37-0.63L16.99,5 M11,6.13V4h2 c0.57,0,1.1,0.17,1.55,0.45l1.43-1.43C15.15,2.39,14.13,2,13,2c-1.48,0-5.5,0-5.5,0v2H9v2.14C7.23,6.51,5.81,7.8,5.26,9.5h3.98 L15,11.65v-0.62C15,8.61,13.28,6.59,11,6.13z M1,22h4V11H1V22z M20,17h-7l-2.09-0.73l0.33-0.94L13,16h2.82 c0.65,0,1.18-0.53,1.18-1.18l0,0c0-0.49-0.31-0.93-0.77-1.11L8.97,11H7v9.02L14,22l8-3l0,0C21.99,17.9,21.11,17,20,17z M20,14 c1.1,0,2-0.9,2-2c0-1.1-2-4-2-4s-2,2.9-2,4C18,13.1,18.9,14,20,14z"/></svg>

<svg width="24" height="24" viewBox="0 0 24 24" fill="none" xmlns="http://www.w3.org/2000/svg">
<g clip-path="url(#clip0_147_6362)">
<path d="M16.99 5L17.62 6.37L18.99 7L17.62 7.63L16.99 9L16.36 7.63L14.99 7L16.36 6.37L16.99 5ZM11 6.13V4H13C13.57 4 14.1 4.17 14.55 4.45L15.98 3.02C15.15 2.39 14.13 2 13 2C11.52 2 7.5 2 7.5 2V4H9V6.14C7.23 6.51 5.81 7.8 5.26 9.5H9.24L15 11.65V11.03C15 8.61 13.28 6.59 11 6.13ZM1 22H5V11H1V22ZM20 17H13L10.91 16.27L11.24 15.33L13 16H15.82C16.47 16 17 15.47 17 14.82C17 14.33 16.69 13.89 16.23 13.71L8.97 11H7V20.02L14 22L22 19C21.99 17.9 21.11 17 20 17ZM20 14C21.1 14 22 13.1 22 12C22 10.9 20 8 20 8C20 8 18 10.9 18 12C18 13.1 18.9 14 20 14Z" fill="#323232"/>
</g>
<defs>
<clipPath id="clip0_147_6362">
<rect width="24" height="24" fill="white"/>
</clipPath>
</defs>
</svg>
